static/dist/images/icons/medium-with-circle.svg

<?xml version="1.0" encoding="utf-8"?>
<!-- Generator: Adobe Illustrator 18.1.1, SVG Export Plug-In . SVG Version: 6.00 Build 0)  -->
<!DOCTYPE svg PUBLIC "-//W3C//DTD SVG 1.1//EN" "http://www.w3.org/Graphics/SVG/1.1/DTD/svg11.dtd">
<svg version="1.1" id="Medium_w_x2F__circle" xmlns="http://www.w3.org/2000/svg" xmlns:xlink="http://www.w3.org/1999/xlink"
	 x="0px" y="0px" viewBox="0 0 20 20" enable-background="new 0 0 20 20" xml:space="preserve">
<path d="M10,0.3999634c-5.3019409,0-9.5999756,4.2980957-9.5999756,9.6000366S4.6980591,19.5999756,10,19.5999756
	S19.5999756,15.3019409,19.5999756,10S15.3019409,0.3999634,10,0.3999634z M14.2000122,7.666687h-0.1165771
	c0,0-0.3500977,0-0.3500977,0.3500977c0,0.3500366,0,3.9666748,0,3.9666748s0,0.3497925,0.3500977,0.3497925h0.1165771v0.9333496
	h-2.7999878V12.333252h0.4666138V7.9933472h-0.0466309l-1.4301147,5.2732544H9.1304321L7.7133179,7.9933472H7.666687v4.3399048
	h0.4666748v0.9333496h-2.333374V12.333252h0.1165771c0,0,0.3500977,0,0.3500977-0.3500366s0-3.9667358,0-3.9667358
	s0-0.3497925-0.3500977-0.3497925H5.7999878V6.7333984H8.895874l1.0858765,4.0408325h0.0357666l1.0959473-4.0408325h3.0865479
	V7.666687z"/>
</svg>

<svg xmlns="http://www.w3.org/2000/svg" viewBox="0 0 20 20"><path d="M10 .4C4.698.4.4 4.698.4 10s4.298 9.6 9.6 9.6 9.6-4.298 9.6-9.6S15.302.4 10 .4zm4.2 7.267h-.117s-.35 0-.35.35v3.966s0 .35.35.35h.117v.934h-2.8v-.934h.467v-4.34h-.047l-1.43 5.274H9.13L7.713 7.993h-.046v4.34h.466v.934H5.8v-.934h.117s.35 0 .35-.35V8.016s0-.35-.35-.35H5.8v-.933h3.096l1.086 4.041h.036l1.095-4.04H14.2v.933z"/></svg>
